X:192
T: Yuanyang jia laodiao
N: C0316A
O: China,Shandong, Huimin
S: III, 407, unten)]
N: Geschichte dazu: Ein Maedchen ist mit einem alten Mann verheiratet,
N: der viele Frauen und Nebenfrauen hat. Am Ende "verschwestern" sich
N: alle gegen den Alten. - Das Lied enthaelt Elemente der Xiqu - Oper.
N: Als Lokaloper aufgefuehrt. Dauer der Oper: 2 Stunden
N: +++Das Lied wurde GETEILT!!! Fortsetzung im folgenden Dokument unter
N: gleicher Signatur B. Phrasierung pruefen!!
N: Wenig Verzierungen. Vor- und Zwischenspiele weggelassen.
R: Wuge, Yangge, Guzi yangge. Minjian gushi]
M: 2/4
L: 1/16
K: G
g4d3g | B2BAB4 | d2d2B2d2 | d2b2a4 | a4a4 | a4a4- | a4
b2bd | b3ag4 | a3bd3e | g4g4 | g4g4- | g4
g2fg | b2e2e2d2 | d2eed2B2 | g2g2d2g2 | B2d2d4 |
z2g4d2 | g4g2e2 | g2g2d2g2 | B4
A3B | d2d6- | d2e2d2e2 | g2e2g4 | B3gB2B2 | z2d4A2 | B3AG2A2 | G2z6 |
z2B4A2 | G3AB2z2 | z2d4B2 | e3Bdz3 |
g2d2g4 | d2e2d4 | g2g2d2g2 | e3Bdz3 |
z2g4g2 | d4g4 | B2z2b4 | a8- | a8- | a2
a2g2e2 | d2B2g4 | z2d2z2B2 | B4z2d2 | z2A2BdBA | G2z6 |
b2bdb2a2 | b4a4 | a2z2a2z2 | a8 |
bb2dbag2 | a3bd3e | g4g4 | g4g4- | g4
g2fg | a2e2d3B | d2d2e4 | d2ggg2g2 | e3Bd4 |
a3ag2a2 | g2a2g2e2 | a3ag2e2 | d2e2d4 |
B3AB2B2 | B3AB2B2 | z2e2B2d2 | b2g2a4- | a8- | a2
d2b2a2 | b3ag2a2 | g3ag2a2 |
a4a4 | a2d2f4 | f4f4 | f4f4- | f8 |
z2a4e2 | f4z2e2 | d4B2z2 | d2deg2e2 | d2deg4 |
z2g2e2d2 | B3dB2A2 | z2d4A2 | B3AG2A2 | G4G2z2

@@@ Tune index: 6193
